X:72
T: Der heimkehrende Braeutigam
N: Q0102
O: Mitteleuropa, Deutschland / Frankreich, Elsass, Puberg
R: Ballade, Ehe - Geloebnis, Betrug
M: 6/8
L: 1/16
K: Bb
F2 | D3FB2D3FB2 | d6B2z2
d2 | c3BAAB2G2c2 | F6-F2z2
F2 | e3dc2B2A2G2 | B2c2d2F2z2
F2 | G3GG2B2A2G2 | d6
e6 | d3cB2c3BA2 | B6-B2z2

@@@ Tune index: 1365
